elementary-icon-theme/elementary/actions/32/document-properties.svg

<?xml version="1.0" encoding="UTF-8" standalone="no"?>
<!-- Created with Inkscape (http://www.inkscape.org/) -->

<svg
   xmlns:dc="http://purl.org/dc/elements/1.1/"
   xmlns:cc="http://creativecommons.org/ns#"
   xmlns:rdf="http://www.w3.org/1999/02/22-rdf-syntax-ns#"
   xmlns:svg="http://www.w3.org/2000/svg"
   xmlns="http://www.w3.org/2000/svg"
   xmlns:xlink="http://www.w3.org/1999/xlink"
   xmlns:sodipodi="http://sodipodi.sourceforge.net/DTD/sodipodi-0.dtd"
   xmlns:inkscape="http://www.inkscape.org/namespaces/inkscape"
   width="32px"
   height="32px"
   id="svg3753"
   version="1.1"
   inkscape:version="0.47 r22583"
   sodipodi:docname="document-properties.svg">
  <defs
     id="defs3755">
    <linearGradient
       inkscape:collect="always"
       xlink:href="#linearGradient3679"
       id="linearGradient3698"
       x1="16.116789"
       y1="21.119221"
       x2="16.116789"
       y2="10.997566"
       gradientUnits="userSpaceOnUse" />
    <linearGradient
       inkscape:collect="always"
       id="linearGradient3679">
      <stop
         style="stop-color:#ffffff;stop-opacity:1;"
         offset="0"
         id="stop3681" />
      <stop
         style="stop-color:#ffffff;stop-opacity:0;"
         offset="1"
         id="stop3683" />
    </linearGradient>
    <linearGradient
       inkscape:collect="always"
       xlink:href="#linearGradient3679"
       id="linearGradient3688"
       gradientUnits="userSpaceOnUse"
       x1="15.321168"
       y1="3"
       x2="15.321168"
       y2="29.045145" />
    <linearGradient
       inkscape:collect="always"
       xlink:href="#linearGradient5128"
       id="linearGradient2836"
       gradientUnits="userSpaceOnUse"
       gradientTransform="matrix(0.20430229,0,0,0.20430239,2.9246465,3.1289497)"
       x1="86.132919"
       y1="105.105"
       x2="84.63858"
       y2="20.895" />
    <linearGradient
       id="linearGradient5128">
      <stop
         id="stop5130"
         style="stop-color:#ffffff;stop-opacity:1"
         offset="0" />
      <stop
         id="stop5132"
         style="stop-color:#959595;stop-opacity:1"
         offset="1" />
    </linearGradient>
    <linearGradient
       inkscape:collect="always"
       xlink:href="#linearGradient3309"
       id="linearGradient2840"
       gradientUnits="userSpaceOnUse"
       gradientTransform="translate(-15,-17)"
       x1="32.036148"
       y1="19"
       x2="32.036148"
       y2="47.012184" />
    <linearGradient
       x1="63.9995"
       y1="3.1001"
       x2="63.9995"
       y2="122.8994"
       id="linearGradient3309"
       gradientUnits="userSpaceOnUse">
      <stop
         id="stop3311"
         style="stop-color:#f6f6f6;stop-opacity:1"
         offset="0" />
      <stop
         id="stop3313"
         style="stop-color:#d2d2d2;stop-opacity:1"
         offset="1" />
    </linearGradient>
    <linearGradient
       inkscape:collect="always"
       xlink:href="#linearGradient3397"
       id="linearGradient2842"
       gradientUnits="userSpaceOnUse"
       gradientTransform="translate(-15,-17)"
       x1="25.922546"
       y1="19"
       x2="25.922546"
       y2="47.044857" />
    <linearGradient
       id="linearGradient3397">
      <stop
         id="stop3399"
         style="stop-color:#aaaaaa;stop-opacity:1"
         offset="0" />
      <stop
         id="stop3401"
         style="stop-color:#8c8c8c;stop-opacity:1"
         offset="1" />
    </linearGradient>
    <linearGradient
       id="linearGradient10691">
      <stop
         id="stop10693"
         style="stop-color:#000000;stop-opacity:1"
         offset="0" />
      <stop
         id="stop10695"
         style="stop-color:#000000;stop-opacity:0"
         offset="1" />
    </linearGradient>
    <radialGradient
       r="7.228416"
       fy="73.615715"
       fx="6.702713"
       cy="73.615715"
       cx="6.702713"
       gradientTransform="matrix(2.2134617,0,0,0.4842001,1.1638028,-7.1447362)"
       gradientUnits="userSpaceOnUse"
       id="radialGradient3751"
       xlink:href="#linearGradient10691"
       inkscape:collect="always" />
  </defs>
  <sodipodi:namedview
     id="base"
     pagecolor="#ffffff"
     bordercolor="#666666"
     borderopacity="1.0"
     inkscape:pageopacity="0.0"
     inkscape:pageshadow="2"
     inkscape:zoom="11.197802"
     inkscape:cx="16"
     inkscape:cy="16"
     inkscape:current-layer="layer1"
     showgrid="true"
     inkscape:grid-bbox="true"
     inkscape:document-units="px"
     inkscape:window-width="603"
     inkscape:window-height="479"
     inkscape:window-x="417"
     inkscape:window-y="169"
     inkscape:window-maximized="0" />
  <metadata
     id="metadata3758">
    <rdf:RDF>
      <cc:Work
         rdf:about="">
        <dc:format>image/svg+xml</dc:format>
        <dc:type
           rdf:resource="http://purl.org/dc/dcmitype/StillImage" />
        <dc:title></dc:title>
      </cc:Work>
    </rdf:RDF>
  </metadata>
  <g
     id="layer1"
     inkscape:label="Layer 1"
     inkscape:groupmode="layer">
    <path
       style="opacity:0.2;fill:url(#radialGradient3751);fill-opacity:1;fill-rule:nonzero;stroke:none;stroke-width:0.80000001;marker:none;visibility:visible;display:inline;overflow:visible"
       id="path10689"
       d="M 31.99982,28.5 C 31.99982,30.432997 24.836456,32 16,32 7.1635428,32 1.7975e-4,30.432997 1.7975e-4,28.5 1.7975e-4,26.567004 7.1635428,25 16,25 c 8.836456,0 15.99982,1.567004 15.99982,3.5 z" />
    <path
       style="fill:url(#linearGradient2840);fill-opacity:1;fill-rule:nonzero;stroke:url(#linearGradient2842);stroke-width:1;stroke-linecap:butt;stroke-linejoin:round;stroke-miterlimit:4;stroke-opacity:1;stroke-dasharray:none;stroke-dashoffset:0;marker:none;visibility:visible;display:block;overflow:visible;enable-background:accumulate"
       id="rect2576"
       d="m 13.875001,2.5 c -0.748739,0 -1.375,0.595012 -1.375,1.34375 l 0,1.7499996 c -0.473402,0.158876 -0.932751,0.343406 -1.375,0.5625 l -1.2187506,-1.21875 c -0.529439,-0.529438 -1.3768121,-0.529438 -1.9062501,0 l -3.0625,3.03125 c -0.529439,0.529438 -0.5294361,1.376813 0,1.90625 l 1.21875,1.2187504 c -0.224327,0.449932 -0.400632,0.923932 -0.5625,1.40625 l -1.71875,0 c -0.748739,0 -1.375002,0.595012 -1.375,1.34375 l 0,4.3125 c -1e-6,0.748738 0.626264,1.343752 1.375,1.34375 l 1.71875,0 c 0.161868,0.482318 0.338173,0.956318 0.5625,1.40625 l -1.21875,1.21875 c -0.529439,0.529438 -0.52944,1.376812 0,1.90625 l 3.0625,3.03125 c 0.529437,0.529438 1.3768131,0.529436 1.9062501,0 l 1.2187506,-1.21875 c 0.442249,0.219094 0.901598,0.403624 1.375,0.5625 l 0,1.75 c -10e-7,0.748738 0.626266,1.343752 1.375,1.34375 l 4.28125,0 c 0.748739,0 1.34375,-0.595014 1.34375,-1.34375 l 0,-1.75 c 0.482318,-0.161868 0.956318,-0.338173 1.40625,-0.5625 L 22.125,27.0625 c 0.529439,0.529438 1.376811,0.529438 1.90625,0 l 3.0625,-3.03125 c 0.529439,-0.529438 0.529434,-1.376814 0,-1.90625 l -1.25,-1.25 c 0.219094,-0.442249 0.403624,-0.901598 0.5625,-1.375 l 1.75,0 C 28.904989,19.5 29.5,18.904986 29.5,18.15625 l 0,-4.3125 C 29.500001,13.095012 28.904984,12.5 28.15625,12.5 l -1.75,0 c -0.158876,-0.473402 -0.343406,-0.932751 -0.5625,-1.375 l 1.25,-1.2500004 c 0.529439,-0.529438 0.529438,-1.376812 0,-1.90625 l -3.0625,-3.03125 c -0.529437,-0.529438 -1.376814,-0.529438 -1.90625,0 l -1.218749,1.21875 c -0.449932,-0.224327 -0.923932,-0.400632 -1.40625,-0.5625 l 0,-1.7499996 C 19.500002,3.095012 18.904985,2.5 18.156251,2.5 l -4.28125,0 z m 2.125,10 c 1.932,0 3.5,1.568 3.5,3.5 0,1.932 -1.568,3.5 -3.5,3.5 -1.932001,0 -3.5,-1.568 -3.5,-3.5 -10e-7,-1.932 1.568,-3.5 3.5,-3.5 z" />
    <path
       style="opacity:0.05;fill:#000000;fill-opacity:1;stroke:none"
       d="m 16,8 c -4.411273,0 -8.0000001,3.588727 -8.0000001,8 0,4.411274 3.5887271,8 8.0000001,8 4.411273,0 8,-3.588726 8,-8 0,-4.411273 -3.588727,-8 -8,-8 z m 0,5 c 1.656854,0 3,1.343146 3,3 0,1.656854 -1.343146,3 -3,3 -1.656854,0 -3,-1.343146 -3,-3 0,-1.656854 1.343146,-3 3,-3 z"
       id="path3315" />
    <path
       style="fill:none;stroke:url(#linearGradient2836);stroke-width:1;stroke-miterlimit:4;stroke-dasharray:none"
       id="path28"
       d="M 15.999999,7.4999998 C 11.313097,7.4999998 7.5,11.313099 7.5,15.999999 7.4999998,20.6869 11.313097,24.5 15.999999,24.5 20.686902,24.5 24.5,20.6869 24.5,15.999999 c 0,-4.6869 -3.813098,-8.4999992 -8.500001,-8.4999992 z" />
    <path
       style="opacity:0.8;fill:none;stroke:url(#linearGradient3688);stroke-width:1;stroke-linecap:butt;stroke-linejoin:round;stroke-miterlimit:4;stroke-opacity:1;stroke-dasharray:none;stroke-dashoffset:0;marker:none;visibility:visible;display:block;overflow:visible;enable-background:accumulate"
       d="M 13.875,3.5 C 13.235242,3.6395957 13.593574,4.4697545 13.5,4.9468366 13.54636,5.5436071 13.5119,6.3339667 12.8125,6.53125 12.047262,6.6918759 11.166497,7.5494632 10.4375,6.84375 9.9318961,6.4175079 9.5498274,5.7848828 8.9531245,5.5087895 8.4124169,5.783988 8.0218956,6.3846832 7.5376484,6.7943684 6.8835784,7.4723723 6.160738,8.0956156 5.5502082,8.8082895 5.5121354,9.3469747 6.1659006,9.6168631 6.4569999,10.0195 6.9577372,10.399251 7.3743045,11.077377 6.9607793,11.678359 6.6209473,12.338096 6.5722725,13.497039 5.59375,13.5 4.9355223,13.5529 4.22541,13.386227 3.603944,13.59868 c -0.2222261,0.620609 -0.049167,1.345745 -0.1039439,2.01001 0.017783,0.893676 -0.035837,1.794436 0.027261,2.683617 0.3771148,0.391003 1.0238323,0.133059 1.5243644,0.207694 0.6387783,-0.09371 1.4231566,0.122058 1.5377348,0.85939 0.1751984,0.712662 0.9292423,1.558244 0.2543895,2.23436 -0.4203558,0.500498 -1.0498435,0.87899 -1.3216908,1.467284 0.2852627,0.600214 0.9223984,0.985095 1.3573244,1.49305 0.644873,0.63134 1.2973181,1.296541 1.9347017,1.908072 0.5512981,0.04116 0.8274487,-0.620606 1.2366649,-0.919156 0.380101,-0.501806 1.060094,-0.917737 1.661198,-0.502471 0.649426,0.341936 1.787769,0.400533 1.788052,1.365721 0.05574,0.659036 -0.119745,1.379822 0.103948,1.995071 0.710824,0.211082 1.509181,0.0466 2.256608,0.09868 0.813909,-0.01488 1.632306,0.02982 2.443405,-0.02238 0.37768,-0.362795 0.119997,-1.008529 0.196039,-1.497998 -0.0551,-0.577962 0.02332,-1.324829 0.6875,-1.510874 0.777573,-0.148764 1.668777,-1.021335 2.40625,-0.3125 0.505604,0.426242 0.887673,1.058866 1.484375,1.334961 0.540708,-0.275199 0.931229,-0.875894 1.415477,-1.285579 0.654069,-0.678004 1.37691,-1.301247 1.987439,-2.013921 C 26.519111,22.653025 25.865349,22.383137 25.57425,21.9805 25.067595,21.590734 24.611676,20.908494 25.040529,20.288052 25.382465,19.638626 25.441062,18.500283 26.40625,18.5 27.070263,18.45281 27.780543,18.601475 28.41168,18.41168 28.603178,17.677777 28.45159,16.864008 28.5,16.097155 28.48566,15.297302 28.52907,14.493099 28.47762,13.696042 28.114826,13.318358 27.469092,13.576042 26.979623,13.5 26.33668,13.589849 25.534036,13.39931 25.41318,12.649495 25.224827,11.947079 24.484984,11.107528 25.15625,10.4375 25.592167,9.9753075 26.085713,9.560517 26.485868,9.0689097 26.511636,8.5257895 25.866355,8.2608996 25.569994,7.8597775 24.786231,7.0902967 23.993245,6.2876007 23.217164,5.5378442 22.665866,5.4966795 22.389716,6.1584501 21.9805,6.457 21.600749,6.9577372 20.922623,7.3743045 20.321641,6.9607794 19.661904,6.6209473 18.502961,6.5722725 18.5,5.59375 18.452808,4.9297375 18.601477,4.2194573 18.411678,3.5883217 17.677777,3.3968193 16.864007,3.5484091 16.097155,3.5 c -0.740718,0 -1.481437,0 -2.222155,0 z"
       id="path2901"
       sodipodi:nodetypes="ccccccccccccccccccccccccccccccccccccccccccccccccc" />
    <path
       sodipodi:type="arc"
       style="opacity:0.4;color:#000000;fill:none;stroke:url(#linearGradient3698);stroke-width:1.01216555;stroke-linecap:butt;stroke-linejoin:miter;stroke-miterlimit:4;stroke-opacity:1;stroke-dasharray:none;stroke-dashoffset:0;marker:none;visibility:visible;display:inline;overflow:visible;enable-background:accumulate"
       id="path3690"
       sodipodi:cx="16.116789"
       sodipodi:cy="16.058393"
       sodipodi:rx="4.5547447"
       sodipodi:ry="4.5547447"
       d="m 20.671534,16.058393 a 4.5547447,4.5547447 0 1 1 -9.10949,0 4.5547447,4.5547447 0 1 1 9.10949,0 z"
       transform="matrix(0.98798073,0,0,0.98798073,0.07692317,0.1346167)" />
  </g>
</svg>

<?xml version="1.0" encoding="UTF-8" standalone="no"?>
<!-- Created with Inkscape (http://www.inkscape.org/) -->
<svg
   xmlns:svg="http://www.w3.org/2000/svg"
   xmlns="http://www.w3.org/2000/svg"
   xmlns:xlink="http://www.w3.org/1999/xlink"
   version="1.0"
   width="32"
   height="32"
   id="svg3330">
  <defs
     id="defs3332">
    <linearGradient
       id="linearGradient10691">
      <stop
         id="stop10693"
         style="stop-color:#000000;stop-opacity:1"
         offset="0" />
      <stop
         id="stop10695"
         style="stop-color:#000000;stop-opacity:0"
         offset="1" />
    </linearGradient>
    <radialGradient
       cx="6.702713"
       cy="73.615715"
       r="7.228416"
       fx="6.702713"
       fy="73.615715"
       id="radialGradient2538"
       xlink:href="#linearGradient10691"
       gradientUnits="userSpaceOnUse"
       gradientTransform="matrix(2.2134617,0,0,0.4842001,1.1638028,-7.1447362)" />
    <linearGradient
       id="linearGradient3397">
      <stop
         id="stop3399"
         style="stop-color:#aaaaaa;stop-opacity:1"
         offset="0" />
      <stop
         id="stop3401"
         style="stop-color:#8c8c8c;stop-opacity:1"
         offset="1" />
    </linearGradient>
    <linearGradient
       x1="25.922546"
       y1="19"
       x2="25.922546"
       y2="47.044857"
       id="linearGradient3328"
       xlink:href="#linearGradient3397"
       gradientUnits="userSpaceOnUse"
       gradientTransform="translate(-15,-17)" />
    <linearGradient
       x1="63.9995"
       y1="3.1001"
       x2="63.9995"
       y2="122.8994"
       id="linearGradient3309"
       gradientUnits="userSpaceOnUse">
      <stop
         id="stop3311"
         style="stop-color:#f6f6f6;stop-opacity:1"
         offset="0" />
      <stop
         id="stop3313"
         style="stop-color:#d2d2d2;stop-opacity:1"
         offset="1" />
    </linearGradient>
    <linearGradient
       x1="32.036148"
       y1="19"
       x2="32.036148"
       y2="47.012184"
       id="linearGradient3326"
       xlink:href="#linearGradient3309"
       gradientUnits="userSpaceOnUse"
       gradientTransform="translate(-15,-17)" />
    <linearGradient
       id="linearGradient5128">
      <stop
         id="stop5130"
         style="stop-color:#ffffff;stop-opacity:1"
         offset="0" />
      <stop
         id="stop5132"
         style="stop-color:#959595;stop-opacity:1"
         offset="1" />
    </linearGradient>
    <linearGradient
       x1="86.132919"
       y1="105.105"
       x2="84.63858"
       y2="20.895"
       id="linearGradient3322"
       xlink:href="#linearGradient5128"
       gradientUnits="userSpaceOnUse"
       gradientTransform="matrix(0.2014014,0,0,0.2014015,3.1103045,3.311705)" />
  </defs>
  <g
     id="layer1">
    <path
       d="M 31.99982,28.5 C 31.99982,30.432997 24.836456,32 16,32 C 7.1635428,32 0.00017975,30.432997 0.00017975,28.5 C 0.00017975,26.567004 7.1635428,25 16,25 C 24.836456,25 31.99982,26.567004 31.99982,28.5 z"
       id="path10689"
       style="opacity:0.2;fill:url(#radialGradient2538);fill-opacity:1;fill-rule:nonzero;stroke:none;stroke-width:0.80000001;stroke-linecap:butt;stroke-linejoin:miter;marker:none;marker-start:none;marker-mid:none;marker-end:none;stroke-miterlimit:4;stroke-dashoffset:0;stroke-opacity:1;visibility:visible;display:inline;overflow:visible" />
    <path
       d="M 13.875001,2.5 C 13.126262,2.5 12.500001,3.095012 12.500001,3.84375 L 12.500001,5.5937496 C 12.026599,5.7526256 11.56725,5.9371556 11.125001,6.1562496 L 9.9062506,4.9374996 C 9.3768116,4.4080616 8.5294385,4.4080616 8.0000005,4.9374996 L 4.9375005,7.9687496 C 4.4080615,8.4981876 4.4080645,9.3455626 4.9375005,9.8749996 L 6.1562505,11.09375 C 5.9319235,11.543682 5.7556185,12.017682 5.5937505,12.5 L 3.8750005,12.5 C 3.1262615,12.5 2.4999985,13.095012 2.5000005,13.84375 L 2.5000005,18.15625 C 2.4999995,18.904988 3.1262645,19.500002 3.8750005,19.5 L 5.5937505,19.5 C 5.7556185,19.982318 5.9319235,20.456318 6.1562505,20.90625 L 4.9375005,22.125 C 4.4080615,22.654438 4.4080605,23.501812 4.9375005,24.03125 L 8.0000005,27.0625 C 8.5294375,27.591938 9.3768136,27.591936 9.9062506,27.0625 L 11.125001,25.84375 C 11.56725,26.062844 12.026599,26.247374 12.500001,26.40625 L 12.500001,28.15625 C 12.5,28.904988 13.126267,29.500002 13.875001,29.5 L 18.156251,29.5 C 18.90499,29.5 19.500001,28.904986 19.500001,28.15625 L 19.500001,26.40625 C 19.982319,26.244382 20.456319,26.068077 20.906251,25.84375 L 22.125,27.0625 C 22.654439,27.591938 23.501811,27.591938 24.03125,27.0625 L 27.09375,24.03125 C 27.623189,23.501812 27.623184,22.654436 27.09375,22.125 L 25.84375,20.875 C 26.062844,20.432751 26.247374,19.973402 26.40625,19.5 L 28.15625,19.5 C 28.904989,19.5 29.5,18.904986 29.5,18.15625 L 29.5,13.84375 C 29.500001,13.095012 28.904984,12.5 28.15625,12.5 L 26.40625,12.5 C 26.247374,12.026598 26.062844,11.567249 25.84375,11.125 L 27.09375,9.8749996 C 27.623189,9.3455616 27.623188,8.4981876 27.09375,7.9687496 L 24.03125,4.9374996 C 23.501813,4.4080616 22.654436,4.4080616 22.125,4.9374996 L 20.906251,6.1562496 C 20.456319,5.9319226 19.982319,5.7556176 19.500001,5.5937496 L 19.500001,3.84375 C 19.500002,3.095012 18.904985,2.5 18.156251,2.5 L 13.875001,2.5 z M 16.000001,12.5 C 17.932001,12.5 19.500001,14.068 19.500001,16 C 19.500001,17.932 17.932001,19.5 16.000001,19.5 C 14.068,19.5 12.500001,17.932 12.500001,16 C 12.5,14.068 14.068001,12.5 16.000001,12.5 z"
       id="rect2576"
       style="fill:url(#linearGradient3326);fill-opacity:1;fill-rule:nonzero;stroke:url(#linearGradient3328);stroke-width:1;stroke-linecap:butt;stroke-linejoin:round;marker:none;marker-start:none;marker-mid:none;marker-end:none;stroke-miterlimit:4;stroke-dasharray:none;stroke-dashoffset:0;stroke-opacity:1;visibility:visible;display:block;overflow:visible;enable-background:accumulate" />
    <path
       d="M 16.000001,7.9999996 C 11.588728,7.9999996 8.0000025,11.588727 8.0000025,16 C 8.0000025,20.411274 11.588728,24 16.000001,24 C 20.411274,24 24,20.411274 24,16 C 24,11.588727 20.411274,7.9999996 16.000001,7.9999996 z M 16.000001,11.692309 C 18.377845,11.692309 20.307694,13.622155 20.307694,16 C 20.307694,18.377847 18.377845,20.307693 16.000001,20.307693 C 13.622155,20.307693 11.69231,18.377847 11.69231,16 C 11.69231,13.622155 13.622155,11.692309 16.000001,11.692309 z"
       id="path3315"
       style="opacity:0.05;fill:#000000;fill-opacity:1;stroke:none;stroke-width:0.99956679;stroke-miterlimit:4;stroke-dasharray:none" />
    <path
       d="M 16.000001,7.6206906 C 11.379648,7.6206906 7.6206925,11.379648 7.6206925,15.999999 C 7.6206925,20.620351 11.379648,24.379309 16.000001,24.379309 C 20.620354,24.379309 24.37931,20.620351 24.37931,15.999999 C 24.37931,11.379648 20.620354,7.6206906 16.000001,7.6206906 z"
       id="path28"
       style="fill:none;stroke:url(#linearGradient3322);stroke-width:1;stroke-miterlimit:4;stroke-dasharray:none" />
  </g>
</svg>
